app/images/about/projects.svg

<svg xmlns="http://www.w3.org/2000/svg" width="37" height="38"><path fill-rule="evenodd" fill="#A3BBC8" d="M35.489 11.992l-17.485 17.64a.914.914 0 01-.396.234l-5.697 1.595a5.076 5.076 0 01-.226.029H7.059a.907.907 0 01-.901-.911c0-.502.404-.909.901-.909h3.94l1.394-5.066a.907.907 0 01.231-.4l.014-.015H7.059a.906.906 0 01-.901-.91c0-.503.404-.91.901-.91h7.384l5.432-5.48H7.059a.906.906 0 01-.901-.91c0-.504.404-.911.901-.911H21.68l8.429-8.503a3.036 3.036 0 014.318 0l1.062 1.071a3.102 3.102 0 010 4.356zM13.718 26.595l-.736 2.677 2.652-.744-1.916-1.933zm15.254-16.308L14.538 24.848l2.827 2.853L31.8 13.139l-2.828-2.852zm5.24-1.364L33.15 7.852a1.241 1.241 0 00-1.766 0l-1.136 1.147 2.828 2.853 1.136-1.147a1.27 1.27 0 000-1.782zm-5.67-2.91a.907.907 0 01-.902-.91V2.23a.17.17 0 00-.168-.17H9.284v5.552c0 1.097-.886 1.99-1.974 1.99H1.807v26.367c0 .093.076.17.168.17h25.497a.17.17 0 00.168-.17V22.067c0-.502.404-.91.902-.91s.902.408.902.91v13.902a1.984 1.984 0 01-1.973 1.991H1.975a1.984 1.984 0 01-1.973-1.991V8.691c0-.241.095-.472.264-.643L7.742.506a.9.9 0 01.639-.267h19.091c1.088 0 1.972.893 1.972 1.991v2.873c0 .502-.404.91-.902.91zM7.478 3.347L3.083 7.782H7.31a.17.17 0 00.168-.17V3.347z"/></svg>

<svg 
 xmlns="http://www.w3.org/2000/svg"
 xmlns:xlink="http://www.w3.org/1999/xlink"
 width="37px" height="38px">
<path fill-rule="evenodd"  fill="rgb(163, 187, 200)"
 d="M35.489,11.992 L18.004,29.632 C17.894,29.743 17.757,29.823 17.608,29.866 C17.608,29.866 11.916,31.459 11.911,31.461 C11.883,31.468 11.685,31.490 11.685,31.490 L7.059,31.490 C6.562,31.490 6.158,31.082 6.158,30.579 C6.158,30.077 6.562,29.670 7.059,29.670 L10.999,29.670 L12.393,24.604 C12.434,24.453 12.514,24.315 12.624,24.204 L12.638,24.189 L7.059,24.189 C6.562,24.189 6.158,23.782 6.158,23.279 C6.158,22.776 6.562,22.369 7.059,22.369 L14.443,22.369 L19.875,16.889 L7.059,16.889 C6.562,16.889 6.158,16.481 6.158,15.979 C6.158,15.475 6.562,15.068 7.059,15.068 L21.680,15.068 L30.109,6.565 C31.299,5.363 33.237,5.363 34.427,6.565 L35.489,7.636 C36.680,8.836 36.680,10.791 35.489,11.992 ZM13.718,26.595 L12.982,29.272 L15.634,28.528 L13.718,26.595 ZM28.972,10.287 L14.538,24.848 L17.365,27.701 L31.800,13.139 L28.972,10.287 ZM34.212,8.923 L33.150,7.852 C32.907,7.606 32.588,7.483 32.268,7.483 C31.948,7.483 31.628,7.606 31.384,7.852 L30.248,8.999 L33.076,11.852 L34.212,10.705 C34.699,10.213 34.699,9.414 34.212,8.923 ZM28.542,6.013 C28.044,6.013 27.640,5.605 27.640,5.103 L27.640,2.230 C27.640,2.136 27.564,2.060 27.472,2.060 L9.284,2.060 L9.284,7.612 C9.284,8.709 8.398,9.602 7.310,9.602 L1.807,9.602 L1.807,35.969 C1.807,36.062 1.883,36.139 1.975,36.139 L27.472,36.139 C27.564,36.139 27.640,36.062 27.640,35.969 L27.640,22.067 C27.640,21.565 28.044,21.157 28.542,21.157 C29.040,21.157 29.444,21.565 29.444,22.067 L29.444,35.969 C29.444,37.067 28.560,37.960 27.471,37.960 L1.975,37.960 C0.887,37.960 0.002,37.067 0.002,35.969 L0.002,8.691 C0.002,8.450 0.097,8.219 0.266,8.048 L7.742,0.506 C7.912,0.335 8.141,0.239 8.381,0.239 L27.472,0.239 C28.560,0.239 29.444,1.132 29.444,2.230 L29.444,5.103 C29.444,5.605 29.040,6.013 28.542,6.013 ZM7.478,3.347 L3.083,7.782 L7.310,7.782 C7.402,7.782 7.478,7.705 7.478,7.612 L7.478,3.347 Z"/>
</svg>
